icons/repo-locked-24.svg

<svg xmlns="http://www.w3.org/2000/svg" width="24" height="24" viewBox="0 0 24 24">
  <defs/>
  <path d="M2,2.75 A2.75 2.75 0 0 1 4.75,0 L19.25,0 A0.75 0.75 0 0 1 20,0.75 L20,8.75 A0.75 0.75 0 0 1 18.5,8.75 L18.5,1.5 L4.75,1.5 C4.06,1.5 3.5,2.06 3.5,2.75 L3.5,15.401 A2.987 2.987 0 0 1 5,15 L11.25,15 A0.75 0.75 0 0 1 11.25,16.5 L5,16.5 A1.5 1.5 0 0 0 3.5,18 L3.5,19.25 C3.5,19.94 4.06,20.5 4.75,20.5 L10.75,20.5 A0.75 0.75 0 0 1 10.75,22 L4.75,22 A2.75 2.75 0 0 1 2,19.25 L2,2.75 Z"/>
  <path d="M15,14.5 C15,12.567 16.567,11 18.5,11 C20.433,11 22,12.567 22,14.5 L22,16 L22.25,16 C23.216,16 24,16.784 24,17.75 L24,22.25 C24,23.216 23.216,24 22.25,24 L14.75,24 C13.784,24 13,23.216 13,22.25 L13,17.75 C13,16.784 13.784,16 14.75,16 L15,16 Z M18.5,12.5 C17.395,12.5 16.5,13.395 16.5,14.5 L16.5,16 L20.5,16 L20.5,14.5 C20.5,13.395 19.605,12.5 18.5,12.5 Z"/>
</svg>

<svg xmlns="http://www.w3.org/2000/svg" width="24" height="24" viewBox="0 0 24 24"><path d="M2 2.75A2.75 2.75 0 014.75 0h14.5a.75.75 0 01.75.75v8a.75.75 0 01-1.5 0V1.5H4.75c-.69 0-1.25.56-1.25 1.25v12.651A2.987 2.987 0 015 15h6.25a.75.75 0 010 1.5H5A1.5 1.5 0 003.5 18v1.25c0 .69.56 1.25 1.25 1.25h6a.75.75 0 010 1.5h-6A2.75 2.75 0 012 19.25V2.75z"/><path d="M15 14.5a3.5 3.5 0 117 0V16h.25c.966 0 1.75.784 1.75 1.75v4.5A1.75 1.75 0 0122.25 24h-7.5A1.75 1.75 0 0113 22.25v-4.5c0-.966.784-1.75 1.75-1.75H15zm3.5-2a2 2 0 00-2 2V16h4v-1.5a2 2 0 00-2-2z"/></svg>
